X:10632
T:S\aag du noko til kjerringa mi
C:anon., arr. Frank Nordberg
O:Norway
Z:Transcribed by Frank Nordberg - http://www.musicaviva.com
F:http://abc.musicaviva.com/tunes/norway/saag-du-noko-til-dm/saag-du-noko-til-dm-ddad1.abc
V:1 Program 1 25 up %Acoustic guitar
V:2 Program 1 25 merge down %Acoustic guitar
M:C
L:1/8
Q:1/4=130
K:Dm
V:1
d2a2a2a2|a2g>fe4|f2(e>d) ^c2d>e|d4d4:|
V:2
[D,8-D8-A8-]|[D,6D6A6]A2|z2A2z4|z2A2[D,4D4A4]:|
%
V:1
|:a4e4|f2a4(gf)|e6b2|a3gf2e2|d4d4:|
V:2
|:[D,8D8A8]|A2[D,6D6A6]|z2A2[D4A4]|A8|z2A2[D,4D4A4]:|
W:
W:S\aag du noko til kjerrin-ga mi,
W:langt opp i lia, i lia.
W:Stutt stakk, svart hatt
W:og no-ko lite l\aaghalt.
W:
W:
W:  From Musica Viva - http://www.musicaviva.com
W:  the Internet center for free sheet music downloads.

